toolkits/global/packages/global-context/img/icons/download.svg

<svg height="24" viewBox="0 0 24 24" width="24" xmlns="http://www.w3.org/2000/svg"><path d="m16.9975267 18c.5467123 0 1.0024733.4477153 1.0024733 1 0 .5561352-.4488226 1-1.0024733 1h-9.99505341c-.54671233 0-1.00247329-.4477153-1.00247329-1 0-.5561352.44882258-1 1.00247329-1zm-4.9975267-11.9955775c.5522847 0 1 .44483697 1 .9955775v6.7999954l2.4816273-2.4816273c.3928222-.3928221 1.0219732-.4005617 1.4030652-.0194696.3911302.3911301.3914806 1.0249268-.0001404 1.4165479l-4.1762079 4.1762079c-.3912077.3912077-1.0250815.3916069-1.41672-.0000316l-4.17639418-4.1763942c-.39122513-.3912251-.39767006-1.0190815-.01657797-1.4001736.39113012-.3911301 1.02337105-.3930364 1.41951349.0031061l2.48183446 2.4818344v-6.7999954c0-.54984227.4438648-.9955775 1-.9955775z" fill="#666" fill-rule="evenodd"/></svg>

<?xml version="1.0" encoding="UTF-8"?>
<svg width="24px" height="24px" viewBox="0 0 24 24" version="1.1" xmlns="http://www.w3.org/2000/svg" xmlns:xlink="http://www.w3.org/1999/xlink">
    <!-- Generator: Sketch 63.1 (92452) - https://sketch.com -->
    <title>icon-icon / download</title>
    <desc>Created with Sketch.</desc>
    <g id="icon-/-download" stroke="none" stroke-width="1" fill="none" fill-rule="evenodd">
        <path d="M16.9975267,18 C17.544239,18 18,18.4477153 18,19 C18,19.5561352 17.5511774,20 16.9975267,20 L7.00247329,20 C6.45576096,20 6,19.5522847 6,19 C6,18.4438648 6.44882258,18 7.00247329,18 L16.9975267,18 Z M12,6.0044225 C12.5522847,6.0044225 13,6.44925947 13,7 L13,7 L13,13.7999954 L15.4816273,11.3183681 C15.8744495,10.925546 16.5036005,10.9178064 16.8846925,11.2988985 C17.2758227,11.6900286 17.2761731,12.3238253 16.8845521,12.7154464 L16.8845521,12.7154464 L12.7083442,16.8916543 C12.3171365,17.282862 11.6832627,17.2832612 11.2916242,16.8916227 L11.2916242,16.8916227 L7.11523002,12.7152285 C6.72400489,12.3240034 6.71755996,11.696147 7.09865205,11.3150549 C7.48978217,10.9239248 8.1220231,10.9220185 8.51816554,11.318161 L8.51816554,11.318161 L11,13.7999954 L11,7 C11,6.45015773 11.4438648,6.0044225 12,6.0044225 Z" id="download" fill="#666666"></path>
    </g>
</svg>
